src/assets/setting.svg

<svg width="current" height="current" viewBox="0 0 48 48" fill="none" xmlns="http://www.w3.org/2000/svg">
<path d="M23.7216 30.177C20.3091 30.177 17.5396 27.4075 17.5396 23.9951C17.5396 20.5826 20.3091 17.8131 23.7216 17.8131C27.134 17.8131 29.9035 20.5826 29.9035 23.9951C29.9035 27.4075 27.134 30.177 23.7216 30.177ZM23.7216 20.2859C21.6774 20.2859 20.0124 21.9509 20.0124 23.9951C20.0124 26.0392 21.6774 27.7043 23.7216 27.7043C25.7657 27.7043 27.4308 26.0392 27.4308 23.9951C27.4308 21.9509 25.7657 20.2859 23.7216 20.2859Z" fill="#132743"/>
<path d="M29.0134 40.7932C28.6672 40.7932 28.321 40.7438 27.9748 40.6613C26.9527 40.3811 26.0955 39.7382 25.5515 38.8315L25.3537 38.5018C24.381 36.8203 23.0457 36.8203 22.0731 38.5018L21.8918 38.815C21.3478 39.7382 20.4905 40.3976 19.4684 40.6613C18.4299 40.9416 17.3583 40.7932 16.4516 40.2492L13.6162 38.6172C12.6106 38.0402 11.8852 37.1005 11.572 35.9631C11.2753 34.8256 11.4236 33.6551 12.0006 32.6495C12.4787 31.8088 12.6106 31.0505 12.3303 30.5724C12.0501 30.0943 11.3412 29.8141 10.3686 29.8141C7.96174 29.8141 6 27.8523 6 25.4455V22.5441C6 20.1372 7.96174 18.1755 10.3686 18.1755C11.3412 18.1755 12.0501 17.8952 12.3303 17.4172C12.6106 16.9391 12.4952 16.1808 12.0006 15.34C11.4236 14.3344 11.2753 13.1475 11.572 12.0265C11.8687 10.889 12.5941 9.94934 13.6162 9.37235L16.4681 7.74032C18.331 6.6358 20.7873 7.27873 21.9083 9.17453L22.1061 9.50424C23.0787 11.1857 24.414 11.1857 25.3866 9.50424L25.568 9.19102C26.689 7.27873 29.1453 6.6358 31.0246 7.7568L33.8601 9.38884C34.8657 9.96582 35.591 10.9055 35.9042 12.043C36.201 13.1804 36.0526 14.3509 35.4756 15.3565C34.9975 16.1972 34.8657 16.9556 35.1459 17.4336C35.4262 17.9117 36.135 18.192 37.1077 18.192C39.5145 18.192 41.4762 20.1537 41.4762 22.5605V25.462C41.4762 27.8688 39.5145 29.8305 37.1077 29.8305C36.135 29.8305 35.4262 30.1108 35.1459 30.5889C34.8657 31.0669 34.9811 31.8253 35.4756 32.666C36.0526 33.6716 36.2174 34.8585 35.9042 35.9795C35.6075 37.117 34.8821 38.0567 33.8601 38.6337L31.0081 40.2657C30.3817 40.6119 29.7058 40.7932 29.0134 40.7932ZM23.7216 34.6937C25.1888 34.6937 26.5571 35.6169 27.4968 37.2489L27.6781 37.5621C27.8759 37.9083 28.2056 38.1556 28.6013 38.2545C28.9969 38.3534 29.3926 38.304 29.7223 38.1061L32.5742 36.4576C33.0028 36.2103 33.3325 35.7982 33.4644 35.3036C33.5963 34.8091 33.5304 34.298 33.2831 33.8694C32.3434 32.2539 32.228 30.5889 32.9534 29.3195C33.6787 28.0501 35.1789 27.3248 37.0582 27.3248C38.1133 27.3248 38.954 26.484 38.954 25.429V22.5276C38.954 21.489 38.1133 20.6318 37.0582 20.6318C35.1789 20.6318 33.6787 19.9064 32.9534 18.6371C32.228 17.3677 32.3434 15.7027 33.2831 14.0871C33.5304 13.6585 33.5963 13.1475 33.4644 12.6529C33.3325 12.1584 33.0193 11.7627 32.5907 11.499L29.7387 9.86691C29.0299 9.4383 28.0902 9.68557 27.6616 10.4109L27.4803 10.7241C26.5406 12.3562 25.1723 13.2794 23.7052 13.2794C22.238 13.2794 20.8697 12.3562 19.93 10.7241L19.7487 10.3944C19.3366 9.70206 18.4134 9.45478 17.7045 9.86691L14.8526 11.5154C14.424 11.7627 14.0943 12.1748 13.9624 12.6694C13.8305 13.164 13.8964 13.675 14.1437 14.1036C15.0834 15.7192 15.1988 17.3842 14.4734 18.6535C13.7481 19.9229 12.2479 20.6483 10.3686 20.6483C9.31353 20.6483 8.47279 21.489 8.47279 22.5441V25.4455C8.47279 26.484 9.31353 27.3413 10.3686 27.3413C12.2479 27.3413 13.7481 28.0666 14.4734 29.336C15.1988 30.6053 15.0834 32.2704 14.1437 33.8859C13.8964 34.3145 13.8305 34.8256 13.9624 35.3201C14.0943 35.8147 14.4075 36.2103 14.8361 36.4741L17.688 38.1061C18.0342 38.3204 18.4464 38.3699 18.8255 38.271C19.2212 38.1721 19.5509 37.9083 19.7652 37.5621L19.9465 37.2489C20.8862 35.6333 22.2544 34.6937 23.7216 34.6937Z" fill="#132743"/>
</svg>

<svg xmlns="http://www.w3.org/2000/svg" width="current" height="current" fill="none" viewBox="0 0 48 48"><path fill="#132743" d="M23.722 30.177a6.184 6.184 0 0 1-6.182-6.182 6.184 6.184 0 0 1 6.182-6.182 6.184 6.184 0 0 1 6.182 6.182 6.184 6.184 0 0 1-6.182 6.182m0-9.891a3.715 3.715 0 0 0-3.71 3.71 3.715 3.715 0 0 0 3.71 3.708 3.715 3.715 0 0 0 3.709-3.709 3.715 3.715 0 0 0-3.71-3.71"/><path fill="#132743" d="M29.013 40.793a4.5 4.5 0 0 1-1.038-.132 4.05 4.05 0 0 1-2.424-1.83l-.197-.33c-.973-1.68-2.308-1.68-3.28 0l-.182.314a3.95 3.95 0 0 1-2.424 1.846 3.86 3.86 0 0 1-3.016-.412l-2.836-1.632A4.38 4.38 0 0 1 12 32.65c.479-.84.61-1.599.33-2.077s-.989-.758-1.961-.758A4.376 4.376 0 0 1 6 25.445v-2.9a4.376 4.376 0 0 1 4.369-4.37c.972 0 1.681-.28 1.961-.758s.165-1.236-.33-2.077a4.4 4.4 0 0 1-.428-3.313 4.25 4.25 0 0 1 2.044-2.655l2.852-1.632c1.863-1.104 4.32-.461 5.44 1.435l.198.33c.973 1.68 2.308 1.68 3.28 0l.182-.314c1.121-1.912 3.577-2.555 5.457-1.434l2.835 1.632a4.377 4.377 0 0 1 1.615 5.968c-.477.84-.61 1.599-.33 2.077.281.478.99.758 1.963.758a4.376 4.376 0 0 1 4.368 4.369v2.901a4.376 4.376 0 0 1-4.368 4.369c-.973 0-1.682.28-1.962.758s-.165 1.236.33 2.077a4.3 4.3 0 0 1 .428 3.314 4.25 4.25 0 0 1-2.044 2.654l-2.852 1.632a4.1 4.1 0 0 1-1.995.527m-5.291-6.1c1.467 0 2.835.924 3.775 2.556l.181.313c.198.346.528.594.923.693.396.098.792.049 1.121-.149l2.852-1.648a1.907 1.907 0 0 0 .71-2.589c-.94-1.615-1.056-3.28-.33-4.55.725-1.269 2.225-1.994 4.104-1.994a1.886 1.886 0 0 0 1.896-1.896v-2.901c0-1.039-.84-1.896-1.896-1.896-1.88 0-3.38-.726-4.105-1.995s-.61-2.934.33-4.55c.247-.428.313-.94.181-1.434a1.93 1.93 0 0 0-.873-1.154l-2.852-1.632c-.71-.429-1.649-.181-2.077.544l-.182.313c-.94 1.632-2.308 2.555-3.775 2.555s-2.835-.923-3.775-2.555l-.181-.33a1.514 1.514 0 0 0-2.044-.527l-2.852 1.648a1.907 1.907 0 0 0-.71 2.589c.94 1.615 1.056 3.28.33 4.55-.725 1.269-2.225 1.994-4.104 1.994a1.886 1.886 0 0 0-1.896 1.896v2.901c0 1.039.84 1.896 1.896 1.896 1.879 0 3.38.726 4.104 1.995.726 1.27.61 2.934-.33 4.55-.247.428-.312.94-.18 1.434.131.495.445.89.873 1.154l2.852 1.632a1.46 1.46 0 0 0 1.138.165 1.57 1.57 0 0 0 .94-.709l.18-.313c.94-1.616 2.308-2.555 3.776-2.555"/></svg>
